static/rooms/admin_st/chair.svg

<svg xmlns="http://www.w3.org/2000/svg" width="23" height="24"><g transform="translate(11.35 18.65)"><path d="M-9.5-1.35l.4.45q.4.25 1 .25.55 0 1-.25.3-.2.35-.65l.05-2.8q2.35-.9 5.45-1V2l.4.45 1 .25 1-.25.35-.65.1-7.15q2.85.2 5.1 1v2q0 .25.4.45.4.25 1 .25l1-.25.35-.65v-.4Q10.95-1.8 11-.35V-.2Q10.9 1 9.85 1.95L7.8 3.25Q4.55 4.75-.05 4.8q-4.6-.05-7.8-1.55l-2.05-1.3q-.95-.8-1.1-1.75v-1q.2-1.2 1.5-2.15v1.6" fill-opacity=".153"/><linearGradient id="a" gradientUnits="userSpaceOnUse" gradientTransform="matrix(.00174 0 0 .00601 .15 -2.25)" spreadMethod="pad" x1="-819.2" y1="0" x2="819.2" y2="0"><stop offset="0" stop-color="#967f3b"/><stop offset=".443" stop-color="#b39f5a"/><stop offset="1" stop-color="#927a36"/><stop offset="1" stop-color="#ae0202"/></linearGradient><path d="M-1.25-5.65l1.2.05 1.2-.05h.45v.3L1.5 1.8l-.35.65-1 .25-1-.25-.4-.45V-5.65" fill="url(#a)"/><linearGradient id="b" gradientUnits="userSpaceOnUse" gradientTransform="matrix(.00174 0 0 .00601 -8.1 -5.6)" spreadMethod="pad" x1="-819.2" y1="0" x2="819.2" y2="0"><stop offset="0" stop-color="#967f3b"/><stop offset=".443" stop-color="#b39f5a"/><stop offset="1" stop-color="#927a36"/><stop offset="1" stop-color="#ae0202"/></linearGradient><path d="M-6.7-4.35l-.05 2.8q-.05.45-.35.65-.45.25-1 .25-.6 0-1-.25l-.4-.45V-8.05l1.65.9 1.15.5v2.3" fill="url(#b)"/><linearGradient id="c" gradientUnits="userSpaceOnUse" gradientTransform="matrix(.00174 0 0 .00601 8.1 -6.6)" spreadMethod="pad" x1="-819.2" y1="0" x2="819.2" y2="0"><stop offset="0" stop-color="#967f3b"/><stop offset=".443" stop-color="#b39f5a"/><stop offset="1" stop-color="#927a36"/><stop offset="1" stop-color="#ae0202"/></linearGradient><path d="M9.45-2.55l-.35.65-1 .25q-.6 0-1-.25-.4-.2-.4-.45V-6.7l1.1-.45q1-.45 1.7-1l-.05 5.2v.4" fill="url(#c)"/><radialGradient id="d" gradientUnits="userSpaceOnUse" gradientTransform="matrix(.01807 0 0 .01807 3.75 -13.15)" spreadMethod="pad" cx="0" cy="0" r="819.2" fx="0" fy="0"><stop offset="0" stop-color="#cdbc76"/><stop offset="1" stop-color="#927a36"/><stop offset="1" stop-color="#ae0202"/></radialGradient><path d="M-11-13v-.8q.3-1.8 3.15-3.1 3.2-1.5 7.8-1.5t7.85 1.5q3.05 1.45 3.2 3.4V-13.2q-.1 1.2-1.15 2.15l-.3.25L7.8-9.75l-1.1.45Q3.8-8.25-.05-8.2q-3.75-.05-6.6-1.05l-1.1-.45-.1-.05q-1.3-.6-2.05-1.3-.95-.8-1.1-1.75v-.2" fill="url(#d)"/><linearGradient id="e" gradientUnits="userSpaceOnUse" gradientTransform="matrix(.01346 0 0 .00464 -.05 -9.4)" spreadMethod="pad" x1="-819.2" y1="0" x2="819.2" y2="0"><stop offset="0" stop-color="#967f3b"/><stop offset=".443" stop-color="#b39f5a"/><stop offset="1" stop-color="#927a36"/><stop offset="1" stop-color="#ae0202"/></linearGradient><path d="M-2.25-5.7q-2.45-.25-4.45-.95l-1.15-.5-1.65-.9q-1.4-1.05-1.55-2.3v-.3l.05-2.15q.15.95 1.1 1.75.75.7 2.05 1.3l.1.05 1.1.45q2.85 1 6.6 1.05Q3.8-8.25 6.7-9.3l1.1-.45 1.75-1.05.3-.25Q10.9-12 11-13.2v2.6q-.05 1.35-1.5 2.45-.7.55-1.7 1l-1.1.45q-2.25.85-5.1 1.05h-.45l-1.2.05-1.2-.05-1-.05" fill="url(#e)"/><path d="M1.6-5.65v.3L1.5 1.8l-.35.65-1 .25-1-.25-.4-.45v-7.35m0-.3v.3" fill="none" stroke-width=".5" stroke-linecap="round" stroke-linejoin="round" stroke-miterlimit="3" stroke="#574a22"/><path d="M-6.7-6.65v2.3l-.05 2.8q-.05.45-.35.65-.45.25-1 .25-.6 0-1-.25l-.4-.45V-8.05" fill="none" stroke-width=".5" stroke-linecap="round" stroke-linejoin="round" stroke-miterlimit="3" stroke="#625326"/><path d="M9.5-8.15l-.05 5.2M6.7-6.7v4.35q0 .25.4.45.4.25 1 .25l1-.25.35-.65v-.4" fill="none" stroke-width=".5" stroke-linecap="round" stroke-linejoin="round" stroke-miterlimit="3" stroke="#635425"/><path d="M-11-12.8l-.05-.05v-.45l.05-.5q.3-1.8 3.15-3.1 3.2-1.5 7.8-1.5t7.85 1.5q3.05 1.45 3.2 3.4V-10.6q-.05 1.35-1.5 2.45-.7.55-1.7 1l-1.1.45M-9.5-8.05q-1.4-1.05-1.55-2.3v-.3M-11-13q.3 1.75 3.15 3.05l.4.2.8.3q1.95.7 4.4.95l2.2.1 1.2-.05Q4.25-8.6 6.7-9.5l1.1-.45 1.75-1Q10.9-12 11-13.3M-9.5-8.05l1.65.9 1.15.5q2 .7 4.45.95l1 .05 1.2.05 1.2-.05h.45q2.85-.2 5.1-1.05M-11.05-10.65l.05-2.15m0-1v1" fill="none" stroke-width=".5" stroke-linecap="round" stroke-linejoin="round" stroke-miterlimit="3" stroke="#514622"/></g></svg>

<?xml version="1.0" encoding="utf-8"?>
<svg version="1.1" id="Layer_1"
xmlns="http://www.w3.org/2000/svg"
xmlns:xlink="http://www.w3.org/1999/xlink"
xmlns:author="http://www.sothink.com"
width="23px" height="24px"
xml:space="preserve">
<g id="657" transform="matrix(1, 0, 0, 1, 11.35, 18.65)">
<path style="fill:#000000;fill-opacity:0.152941" d="M-9.5,-1.35L-9.1 -0.9Q-8.7 -0.65 -8.1 -0.65Q-7.55 -0.65 -7.1 -0.9Q-6.8 -1.1 -6.75 -1.55L-6.7 -4.35Q-4.35 -5.25 -1.25 -5.35L-1.25 2L-0.85 2.45L0.15 2.7L1.15 2.45L1.5 1.8L1.6 -5.35Q4.45 -5.15 6.7 -4.35L6.7 -2.35Q6.7 -2.1 7.1 -1.9Q7.5 -1.65 8.1 -1.65L9.1 -1.9L9.45 -2.55L9.45 -2.95Q10.95 -1.8 11 -0.35L11 -0.3L11 -0.2Q10.9 1 9.85 1.95L7.8 3.25Q4.55 4.75 -0.05 4.8Q-4.65 4.75 -7.85 3.25L-9.9 1.95Q-10.85 1.15 -11 0.2L-11 -0.8Q-10.8 -2 -9.5 -2.95L-9.5 -1.35" />
<linearGradient
id="LinearGradID_2891" gradientUnits="userSpaceOnUse" gradientTransform="matrix(0.0017395, 0, 0, 0.00601196, 0.15, -2.25)" spreadMethod ="pad" x1="-819.2" y1="0" x2="819.2" y2="0" >
<stop  offset="0" style="stop-color:#967F3B;stop-opacity:1" />
<stop  offset="0.443137" style="stop-color:#B39F5A;stop-opacity:1" />
<stop  offset="1" style="stop-color:#927A36;stop-opacity:1" />
<stop  offset="1" style="stop-color:#AE0202;stop-opacity:1" />
</linearGradient>
<path style="fill:url(#LinearGradID_2891) " d="M-1.25,-5.65L-0.05 -5.6L1.15 -5.65L1.6 -5.65L1.6 -5.35L1.5 1.8L1.15 2.45L0.15 2.7L-0.85 2.45L-1.25 2L-1.25 -5.35L-1.25 -5.65" />
<linearGradient
id="LinearGradID_2892" gradientUnits="userSpaceOnUse" gradientTransform="matrix(0.0017395, 0, 0, 0.00601196, -8.1, -5.6)" spreadMethod ="pad" x1="-819.2" y1="0" x2="819.2" y2="0" >
<stop  offset="0" style="stop-color:#967F3B;stop-opacity:1" />
<stop  offset="0.443137" style="stop-color:#B39F5A;stop-opacity:1" />
<stop  offset="1" style="stop-color:#927A36;stop-opacity:1" />
<stop  offset="1" style="stop-color:#AE0202;stop-opacity:1" />
</linearGradient>
<path style="fill:url(#LinearGradID_2892) " d="M-6.7,-4.35L-6.75 -1.55Q-6.8 -1.1 -7.1 -0.9Q-7.55 -0.65 -8.1 -0.65Q-8.7 -0.65 -9.1 -0.9L-9.5 -1.35L-9.5 -2.95L-9.5 -8.05L-7.85 -7.15L-6.7 -6.65L-6.7 -4.35" />
<linearGradient
id="LinearGradID_2893" gradientUnits="userSpaceOnUse" gradientTransform="matrix(0.0017395, 0, 0, 0.00601196, 8.1, -6.6)" spreadMethod ="pad" x1="-819.2" y1="0" x2="819.2" y2="0" >
<stop  offset="0" style="stop-color:#967F3B;stop-opacity:1" />
<stop  offset="0.443137" style="stop-color:#B39F5A;stop-opacity:1" />
<stop  offset="1" style="stop-color:#927A36;stop-opacity:1" />
<stop  offset="1" style="stop-color:#AE0202;stop-opacity:1" />
</linearGradient>
<path style="fill:url(#LinearGradID_2893) " d="M9.45,-2.55L9.1 -1.9L8.1 -1.65Q7.5 -1.65 7.1 -1.9Q6.7 -2.1 6.7 -2.35L6.7 -4.35L6.7 -6.7L7.8 -7.15Q8.8 -7.6 9.5 -8.15L9.45 -2.95L9.45 -2.55" />
<radialGradient
id="RadialGradID_2894" gradientUnits="userSpaceOnUse" gradientTransform="matrix(0.0180664, 0, 0, 0.0180664, 3.75, -13.15)" spreadMethod ="pad" cx="0" cy="0" r="819.2" fx="0" fy="0" >
<stop  offset="0"  style="stop-color:#CDBC76;stop-opacity:1" />
<stop  offset="1"  style="stop-color:#927A36;stop-opacity:1" />
<stop  offset="1"  style="stop-color:#AE0202;stop-opacity:1" />
</radialGradient>
<path style="fill:url(#RadialGradID_2894) " d="M-11,-13L-11 -13.8Q-10.7 -15.6 -7.85 -16.9Q-4.65 -18.4 -0.05 -18.4Q4.55 -18.4 7.8 -16.9Q10.85 -15.45 11 -13.5L11 -13.35L11 -13.3L11 -13.2Q10.9 -12 9.85 -11.05L9.55 -10.8L7.8 -9.75L6.7 -9.3Q3.8 -8.25 -0.05 -8.2Q-3.8 -8.25 -6.65 -9.25L-7.75 -9.7L-7.85 -9.75Q-9.15 -10.35 -9.9 -11.05Q-10.85 -11.85 -11 -12.8L-11 -13" />
<linearGradient
id="LinearGradID_2895" gradientUnits="userSpaceOnUse" gradientTransform="matrix(0.0134583, 0, 0, 0.00463867, -0.05, -9.4)" spreadMethod ="pad" x1="-819.2" y1="0" x2="819.2" y2="0" >
<stop  offset="0" style="stop-color:#967F3B;stop-opacity:1" />
<stop  offset="0.443137" style="stop-color:#B39F5A;stop-opacity:1" />
<stop  offset="1" style="stop-color:#927A36;stop-opacity:1" />
<stop  offset="1" style="stop-color:#AE0202;stop-opacity:1" />
</linearGradient>
<path style="fill:url(#LinearGradID_2895) " d="M-2.25,-5.7Q-4.7 -5.95 -6.7 -6.65L-7.85 -7.15L-9.5 -8.05Q-10.9 -9.1 -11.05 -10.35L-11.05 -10.65L-11 -12.8Q-10.85 -11.85 -9.9 -11.05Q-9.15 -10.35 -7.85 -9.75L-7.75 -9.7L-6.65 -9.25Q-3.8 -8.25 -0.05 -8.2Q3.8 -8.25 6.7 -9.3L7.8 -9.75L9.55 -10.8L9.85 -11.05Q10.9 -12 11 -13.2L11 -10.6Q10.95 -9.25 9.5 -8.15Q8.8 -7.6 7.8 -7.15L6.7 -6.7Q4.45 -5.85 1.6 -5.65L1.15 -5.65L-0.05 -5.6L-1.25 -5.65L-2.25 -5.7" />
<path style="fill:none;stroke-width:0.5;stroke-linecap:round;stroke-linejoin:round;stroke-miterlimit:3;stroke:#574A22;stroke-opacity:1" d="M1.6,-5.65L1.6 -5.35L1.5 1.8L1.15 2.45L0.15 2.7L-0.85 2.45L-1.25 2L-1.25 -5.35M-1.25,-5.65L-1.25 -5.35" />
<path style="fill:none;stroke-width:0.5;stroke-linecap:round;stroke-linejoin:round;stroke-miterlimit:3;stroke:#625326;stroke-opacity:1" d="M-6.7,-6.65L-6.7 -4.35L-6.75 -1.55Q-6.8 -1.1 -7.1 -0.9Q-7.55 -0.65 -8.1 -0.65Q-8.7 -0.65 -9.1 -0.9L-9.5 -1.35L-9.5 -2.95L-9.5 -8.05" />
<path style="fill:none;stroke-width:0.5;stroke-linecap:round;stroke-linejoin:round;stroke-miterlimit:3;stroke:#635425;stroke-opacity:1" d="M9.5,-8.15L9.45 -2.95M6.7,-6.7L6.7 -4.35L6.7 -2.35Q6.7 -2.1 7.1 -1.9Q7.5 -1.65 8.1 -1.65L9.1 -1.9L9.45 -2.55L9.45 -2.95" />
<path style="fill:none;stroke-width:0.5;stroke-linecap:round;stroke-linejoin:round;stroke-miterlimit:3;stroke:#514622;stroke-opacity:1" d="M-11,-12.8L-11.05 -12.85L-11.05 -13.3L-11 -13.8Q-10.7 -15.6 -7.85 -16.9Q-4.65 -18.4 -0.05 -18.4Q4.55 -18.4 7.8 -16.9Q10.85 -15.45 11 -13.5L11 -13.35L11 -13.3L11 -13.2L11 -10.6Q10.95 -9.25 9.5 -8.15Q8.8 -7.6 7.8 -7.15L6.7 -6.7M-9.5,-8.05Q-10.9 -9.1 -11.05 -10.35L-11.05 -10.65M-11,-13Q-10.7 -11.25 -7.85 -9.95L-7.45 -9.75L-6.65 -9.45Q-4.7 -8.75 -2.25 -8.5L-0.05 -8.4L1.15 -8.45Q4.25 -8.6 6.7 -9.5L7.8 -9.95L9.55 -10.95Q10.9 -12 11 -13.3M-9.5,-8.05L-7.85 -7.15L-6.7 -6.65Q-4.7 -5.95 -2.25 -5.7L-1.25 -5.65L-0.05 -5.6L1.15 -5.65L1.6 -5.65Q4.45 -5.85 6.7 -6.7" />
<path style="fill:none;stroke-width:0.5;stroke-linecap:round;stroke-linejoin:round;stroke-miterlimit:3;stroke:#514622;stroke-opacity:1" d="M-11.05,-10.65L-11 -12.8M-11,-13.8L-11 -13L-11 -12.8" />
</g>
</svg>
